X: 20759
T: Johnny Henry's
R: jig
M: 6/8
K: Dmajor
|:ABA BAB|Adf a2 f|gag fgf|e/f/ge dcB|
ABA BAB|Adf a2 f|gag fgf|edc d3:|
|:Adf a2 a|baf a2 f|gag fgf|e/f/ge dcB|
[1 Adf a2 a|baf a2 f|gag fgf|edc d3:|
[2 ABA BAB|Adf a2 f|gag fgf|edc d3||

